X:37
T:Celebrated Set Of Quadrilles No.1. Le4.037
B:L.Leadley MS#4 c1850
Z:Village Music Project, 2016 Steve Mansfield
M:6/8
L:1/8
Q:3/8=80
N:* g2 in Mss
N:** Final two bars indistinct in scan of Mss
K:G
"^key sig. absent from ms"d | g2b d2b | d'3 d'c'b | agf efg | afd efg |
g2b d2b | d'3 d'c'b | e'd'c' d'c'b | "*"g3- g2 ||
b | c'ag fed | d3 (B/c/d/e/f/g/) | fef def | gbd B2b |
bag fed | d2 AB/c/d/e/f/g/ | A//B//c//(d//e/f/g/a/) (A/B/c/d/e/f/) | g3-g2 ||
B | (e^de) (gfg) | fef B^AB | e^de gfg | b3 B3 |
e^de gfg | fef B^AB | "**"(B//c//d//e//f/g/a/b/) (B//c//^d//e//f/g/)a/b/ | e3-e2 |]

